X: 2402
M: C
L: 1/8
K: G
e2 |\
d3B cBAG | B2D>E G4 |\
d3B cBAG | B2D>E G4 |\
e>deg d2B>A | G2E2 D2e2 |\
d3B cBAG | B2D>E G4 |\


